<?xml version="1.0" encoding="UTF-8"?>
<map version="1.10" tiledversion="1.12.2" orientation="orthogonal" renderorder="right-down" width="30" height="18" tilewidth="16" tileheight="16" infinite="0" nextlayerid="5" nextobjectid="1">
 <tileset firstgid="1" source="../../../Game/tsx/Hills.tsx"/>
 <tileset firstgid="100" source="../../../Game/tsx/Water.tsx"/>
 <layer id="1" name="Water" width="30" height="18">
  <data encoding="csv">
100,101,102,103,100,101,102,103,100,101,102,103,100,101,102,103,100,101,102,103,100,101,102,103,100,101,102,103,100,101,
100,101,102,103,100,101,102,103,100,101,102,103,100,101,102,103,100,101,102,103,100,101,102,103,100,101,102,103,100,101,
100,101,102,103,100,101,102,103,100,101,102,103,100,101,102,103,100,101,102,103,100,101,102,103,100,101,102,103,100,101,
100,101,102,103,100,101,102,103,100,101,102,103,100,101,102,103,100,101,102,103,100,101,102,103,100,101,102,103,100,101,
100,101,102,103,100,101,102,103,100,101,102,103,100,101,102,103,100,101,102,103,100,101,102,103,100,101,102,103,100,101,
100,101,102,103,100,101,102,103,100,101,102,103,100,101,102,103,100,101,102,103,100,101,102,103,100,101,102,103,100,101,
100,101,102,103,100,101,102,103,100,101,102,103,100,101,102,103,100,101,102,103,100,101,102,103,100,101,102,103,100,101,
100,101,102,103,100,101,102,103,100,101,102,103,100,101,102,103,100,101,102,103,100,101,102,103,100,101,102,103,100,101,
100,101,102,103,100,101,102,103,100,101,102,103,100,101,102,103,100,101,102,103,100,101,102,103,100,101,102,103,100,101,
100,101,102,103,100,101,102,103,100,101,102,103,100,101,102,103,100,101,102,103,100,101,102,103,100,101,102,103,100,101,
100,101,102,103,100,101,102,103,100,101,102,103,100,101,102,103,100,101,102,103,100,101,102,103,100,101,102,103,100,101,
100,101,102,103,100,101,102,103,100,101,102,103,100,101,102,103,100,101,102,103,100,101,102,103,100,101,102,103,100,101,
100,101,102,103,100,101,102,103,100,101,102,103,100,101,102,103,100,101,102,103,100,101,102,103,100,101,102,103,100,101,
100,101,102,103,100,101,102,103,100,101,102,103,100,101,102,103,100,101,102,103,100,101,102,103,100,101,102,103,100,101,
100,101,102,103,100,101,102,103,100,101,102,103,100,101,102,103,100,101,102,103,100,101,102,103,100,101,102,103,100,101,
100,101,102,103,100,101,102,103,100,101,102,103,100,101,102,103,100,101,102,103,100,101,102,103,100,101,102,103,100,101,
100,101,102,103,100,101,102,103,100,101,102,103,100,101,102,103,100,101,102,103,100,101,102,103,100,101,102,103,100,101,
100,101,102,103,100,101,102,103,100,101,102,103,100,101,102,103,100,101,102,103,100,101,102,103,100,101,102,103,100,101
</data>
 </layer>
 <layer id="2" name="Grass" width="30" height="18">
  <data encoding="csv">
0,0,0,0,0,0,0,0,0,12,13,14,0,0,0,0,0,0,0,0,0,0,0,0,0,0,0,0,0,0,
0,0,0,0,0,0,0,0,0,12,13,14,0,0,0,0,0,0,0,0,0,0,0,0,0,0,0,0,0,0,
0,0,0,0,0,0,0,0,0,12,13,28,2,2,2,2,2,2,2,2,2,2,3,0,0,0,0,0,0,0,
0,0,0,0,0,0,0,0,0,12,13,13,13,13,13,13,13,13,13,13,13,13,14,0,0,0,0,0,0,0,
0,0,0,0,0,0,0,0,0,12,13,13,13,13,13,13,13,13,13,13,13,13,14,0,0,0,0,0,0,0,
0,0,0,0,0,0,0,0,0,12,13,13,13,13,13,13,13,13,13,13,13,13,14,0,0,0,0,0,0,0,
0,0,0,0,0,0,0,0,0,12,13,13,13,13,13,13,13,13,13,13,13,13,14,0,0,0,0,0,0,0,
0,0,0,0,0,0,0,0,0,23,24,24,24,24,24,24,24,24,24,24,24,24,25,0,0,0,0,0,0,0,
0,0,0,0,0,0,0,0,0,0,0,0,0,0,0,0,0,0,0,0,0,0,0,0,0,0,0,0,0,0,
0,0,0,0,0,0,0,0,0,0,0,0,0,0,0,0,0,0,0,0,0,0,0,0,0,0,0,0,0,0,
0,0,0,0,0,0,0,0,0,0,0,0,0,0,0,0,0,0,0,0,0,0,0,0,0,0,0,0,0,0,
0,0,0,0,0,0,0,0,0,0,0,0,0,0,0,0,0,0,0,0,0,0,0,0,0,0,0,0,0,0,
0,0,0,0,0,0,0,0,0,0,0,0,0,0,0,0,0,0,0,0,0,0,0,0,0,0,0,0,0,0,
0,0,0,0,0,0,0,0,0,0,0,0,0,0,0,0,0,0,0,0,0,0,0,0,0,0,0,0,0,0,
0,0,0,0,0,0,0,0,0,0,0,0,0,0,0,0,0,0,0,0,0,0,0,0,0,0,0,0,0,0,
0,0,0,0,0,0,0,0,0,0,0,0,0,0,0,0,0,0,0,0,0,0,0,0,0,0,0,0,0,0,
0,0,0,0,0,0,0,0,0,0,0,0,0,0,0,0,0,0,0,0,0,0,0,0,0,0,0,0,0,0,
0,0,0,0,0,0,0,0,0,0,0,0,0,0,0,0,0,0,0,0,0,0,0,0,0,0,0,0,0,0
</data>
 </layer>
 <layer id="3" name="+1" width="30" height="18">
  <data encoding="csv">
0,0,0,0,0,0,0,0,0,0,0,0,0,0,0,0,0,0,0,0,0,0,0,0,0,0,0,0,0,0,
0,0,0,0,0,0,0,0,0,0,0,0,0,0,0,0,0,0,0,0,0,0,0,0,0,0,0,0,0,0,
0,0,0,0,0,0,0,0,0,0,0,0,0,0,0,0,0,0,0,0,0,0,0,0,0,0,0,0,0,0,
0,0,0,0,0,0,0,0,0,0,0,0,0,0,0,0,0,0,0,0,0,0,0,0,0,0,0,0,0,0,
0,0,0,0,0,0,0,0,0,0,0,0,0,0,0,0,0,0,0,0,0,0,0,0,0,0,0,0,0,0,
0,0,0,0,0,0,0,0,0,0,0,0,0,0,0,0,0,0,0,0,0,0,0,0,0,0,0,0,0,0,
0,0,0,0,0,0,0,0,0,0,0,0,0,0,0,0,0,0,0,0,0,0,0,0,0,0,0,0,0,0,
0,0,0,0,0,0,0,0,0,0,0,0,0,0,0,0,0,0,0,0,0,0,0,0,0,0,0,0,0,0,
0,0,0,0,0,0,0,0,0,0,0,0,0,0,0,0,0,0,0,0,0,0,0,0,0,0,0,0,0,0,
0,0,0,0,0,0,0,0,0,0,0,0,0,0,0,0,0,0,0,0,0,0,0,0,0,0,0,0,0,0,
0,0,0,0,0,0,0,0,0,0,0,0,0,0,0,0,0,0,0,0,0,0,0,0,0,0,0,0,0,0,
0,0,0,0,0,0,0,0,0,0,0,0,0,0,0,0,0,0,0,0,0,0,0,0,0,0,0,0,0,0,
0,0,0,0,0,0,0,0,0,0,0,0,0,0,0,0,0,0,0,0,0,0,0,0,0,0,0,0,0,0,
0,0,0,0,0,0,0,0,0,0,0,0,0,0,0,0,0,0,0,0,0,0,0,0,0,0,0,0,0,0,
0,0,0,0,0,0,0,0,0,0,0,0,0,0,0,0,0,0,0,0,0,0,0,0,0,0,0,0,0,0,
0,0,0,0,0,0,0,0,0,0,0,0,0,0,0,0,0,0,0,0,0,0,0,0,0,0,0,0,0,0,
0,0,0,0,0,0,0,0,0,0,0,0,0,0,0,0,0,0,0,0,0,0,0,0,0,0,0,0,0,0,
0,0,0,0,0,0,0,0,0,0,0,0,0,0,0,0,0,0,0,0,0,0,0,0,0,0,0,0,0,0
</data>
 </layer>
 <objectgroup id="4" name="Spawnpoints"/>
</map>
