<?xml version="1.0" encoding="UTF-8"?>
<map version="1.10" tiledversion="1.12.2" orientation="orthogonal" renderorder="right-down" width="30" height="18" tilewidth="16" tileheight="16" infinite="0" nextlayerid="14" nextobjectid="35">
 <tileset firstgid="1" source="Hills.tsx"/>
 <tileset firstgid="100" source="Water.tsx"/>
 <tileset firstgid="104" source="Fences.tsx"/>
 <tileset firstgid="120" source="Ground_Dirt_Orange_Hole_Transparent.tsx"/>
 <tileset firstgid="124" source="Wood_Bridge.tsx"/>
 <tileset firstgid="139" source="Grey_Brick_Houses_With_Doors_Grass.tsx"/>
 <tileset firstgid="229" source="Tilled_Dirt_Wide.tsx"/>
 <tileset firstgid="306" source="Paths.tsx"/>
 <tileset firstgid="322" source="Grass_Biome_Things.tsx"/>
 <layer id="1" name="Water" width="30" height="18">
  <data encoding="csv">
100,101,102,103,100,101,102,103,100,101,102,103,100,101,102,103,100,101,102,103,100,101,102,103,100,101,102,103,100,101,
100,101,102,103,100,101,102,103,100,101,102,103,100,101,102,103,100,101,102,103,100,101,102,103,100,101,102,103,100,101,
100,101,102,103,100,101,102,103,100,101,102,103,100,101,102,103,100,101,102,103,100,101,102,103,100,101,102,103,100,101,
100,101,102,103,100,101,102,103,100,101,102,103,100,101,102,103,100,101,102,103,100,101,102,103,100,101,102,103,100,101,
100,101,102,103,100,101,102,103,100,101,102,103,100,101,102,103,100,101,102,103,100,101,102,103,100,101,102,103,100,101,
100,101,102,103,100,101,102,103,100,101,102,103,100,101,102,103,100,101,102,103,100,101,102,103,100,101,102,103,100,101,
100,101,102,103,100,101,102,103,100,101,102,103,100,101,102,103,100,101,102,103,100,101,102,103,100,101,102,103,100,101,
100,101,102,103,100,101,102,103,100,101,102,103,100,101,102,103,100,101,102,103,100,101,102,103,100,101,102,103,100,101,
100,101,102,103,100,101,102,103,100,101,102,103,100,101,102,103,100,101,102,103,100,101,102,103,100,101,102,103,100,101,
100,101,102,103,100,101,102,103,100,101,102,103,100,101,102,103,100,101,102,103,100,101,102,103,100,101,102,103,100,101,
100,101,102,103,100,101,102,103,100,101,102,103,100,101,102,103,100,101,102,103,100,101,102,103,100,101,102,103,100,101,
100,101,102,103,100,101,102,103,100,101,102,103,100,101,102,103,100,101,102,103,100,101,102,103,100,101,102,103,100,101,
100,101,102,103,100,101,102,103,100,101,102,103,100,101,102,103,100,101,102,103,100,101,102,103,100,101,102,103,100,101,
100,101,102,103,100,101,102,103,100,101,102,103,100,101,102,103,100,101,102,103,100,101,102,103,100,101,102,103,100,101,
100,101,102,103,100,101,102,103,100,101,102,103,100,101,102,103,100,101,102,103,100,101,102,103,100,101,102,103,100,101,
100,101,102,103,100,101,102,103,100,101,102,103,100,101,102,103,100,101,102,103,100,101,102,103,100,101,102,103,100,101,
100,101,102,103,100,101,102,103,100,101,102,103,100,101,102,103,100,101,102,103,100,101,102,103,100,101,102,103,100,101,
100,101,102,103,100,101,102,103,100,101,102,103,100,101,102,103,100,101,102,103,100,101,102,103,100,101,102,103,100,101
</data>
 </layer>
 <layer id="12" name="+1" width="30" height="18">
  <data encoding="csv">
363,0,0,0,0,0,363,0,355,0,0,356,366,0,0,346,0,347,0,0,366,0,0,363,0,0,0,0,0,0,
0,0,0,0,0,0,0,0,0,0,365,0,0,366,0,346,0,356,0,356,0,365,0,0,0,0,0,0,0,363,
0,0,0,0,0,0,0,0,0,0,0,0,0,0,0,0,0,0,0,0,0,0,0,0,0,363,0,0,0,0,
0,0,0,0,364,0,0,0,0,0,0,0,0,0,0,0,0,0,0,0,0,0,0,0,0,0,0,0,0,0,
0,0,0,0,0,0,0,0,0,0,0,0,0,0,0,0,0,0,0,0,0,0,0,0,0,0,0,0,364,0,
0,0,363,0,0,0,0,0,0,0,0,0,0,0,0,0,0,0,0,0,0,0,0,0,0,0,0,0,0,0,
0,0,0,0,0,0,0,0,0,0,0,0,0,0,0,0,0,0,0,0,0,0,0,0,0,0,364,0,0,0,
0,364,0,0,363,0,0,0,0,0,0,0,0,0,0,0,0,0,0,0,0,0,0,0,0,0,0,0,0,0,
0,0,0,0,0,0,0,0,0,0,0,0,0,0,0,0,0,0,0,0,0,0,0,364,0,0,0,0,0,0,
0,0,0,0,0,0,363,0,0,0,0,0,0,0,0,0,0,0,0,0,0,0,0,0,0,0,0,0,0,0,
0,0,0,0,0,0,0,0,0,0,0,0,0,0,0,0,0,0,0,0,0,0,0,0,0,0,0,0,364,0,
0,0,0,0,0,0,0,0,0,0,0,347,0,347,0,0,356,0,0,0,0,355,0,0,0,0,0,0,0,0,
0,363,0,0,0,0,363,0,0,0,0,0,0,0,346,0,0,355,0,366,0,0,0,0,364,0,0,0,0,0,
0,0,0,0,0,0,0,0,0,0,0,0,0,0,0,0,0,0,0,0,0,0,0,0,0,0,0,0,0,0,
0,0,0,0,0,0,0,0,0,0,0,0,0,0,0,0,0,0,0,0,0,0,0,0,0,0,0,0,364,0,
0,0,364,0,0,0,0,0,0,0,0,0,0,0,0,0,0,0,0,0,0,0,0,0,0,0,363,0,0,0,
0,0,0,0,0,0,0,363,0,0,0,0,0,0,0,0,0,0,0,0,0,0,0,0,0,0,0,0,0,0,
0,0,0,0,0,0,0,0,0,0,0,0,366,0,0,365,0,0,346,0,0,356,0,0,364,0,0,0,0,363
</data>
 </layer>
 <layer id="2" name="Grass" width="30" height="18">
  <data encoding="csv">
0,0,0,0,0,0,0,0,0,0,0,0,0,0,0,0,0,0,0,0,0,0,0,0,0,0,0,0,0,0,
0,0,0,0,0,0,0,0,0,0,0,0,0,0,0,0,0,0,0,0,0,0,0,0,0,0,0,0,0,0,
0,0,0,0,0,0,0,0,1,2,2,2,2,2,2,2,2,2,2,2,2,3,0,0,0,0,0,0,0,0,
0,0,0,0,0,0,0,0,12,13,13,13,13,13,13,13,13,13,13,13,13,14,0,0,0,0,0,0,0,0,
0,0,0,0,0,0,0,0,12,13,13,13,13,13,13,13,13,13,13,13,13,14,0,0,0,0,0,0,0,0,
0,0,0,0,0,0,0,0,12,13,13,13,13,13,13,13,13,13,13,13,13,14,0,0,0,0,0,0,0,0,
0,0,0,0,0,0,0,0,12,13,13,13,13,13,13,13,13,13,13,13,13,14,0,0,0,0,0,0,0,0,
0,0,0,0,0,0,0,0,12,13,13,13,13,13,13,13,13,13,13,13,13,14,0,0,0,0,0,0,0,0,
0,0,0,0,0,0,0,0,12,13,13,13,13,13,13,13,13,13,13,13,13,14,0,0,0,0,0,0,0,0,
0,0,0,0,0,0,0,0,12,13,13,13,13,13,13,13,13,13,13,13,13,14,0,0,0,0,0,0,0,0,
0,0,0,0,0,0,0,0,23,24,24,24,24,24,24,24,24,24,24,24,24,25,0,0,0,0,0,0,0,0,
0,0,0,0,0,0,0,0,0,0,0,0,0,0,0,0,0,0,0,0,0,0,0,0,0,0,0,0,0,0,
0,0,0,0,0,0,0,0,1,2,3,0,0,0,0,0,0,0,0,0,0,0,0,0,0,0,0,0,0,0,
0,0,0,0,0,0,0,0,12,13,28,2,2,2,2,2,2,2,2,2,2,3,0,0,0,0,0,0,0,0,
0,0,0,0,0,0,0,0,12,13,13,13,13,13,13,13,13,13,13,13,13,14,0,0,0,0,0,0,0,0,
0,0,0,0,0,0,0,0,12,13,13,13,13,13,13,13,13,13,13,13,13,14,0,0,0,0,0,0,0,0,
0,0,0,0,0,0,0,0,12,13,17,24,24,24,24,24,24,24,24,24,24,25,0,0,0,0,0,0,0,0,
0,0,0,0,0,0,0,0,12,13,14,0,0,0,0,0,0,0,0,0,0,0,0,0,0,0,0,0,0,0
</data>
 </layer>
 <layer id="4" name="+1" width="30" height="18">
  <data encoding="csv">
0,0,0,0,0,0,0,0,0,0,0,0,0,0,0,0,0,0,0,0,0,0,0,0,0,0,0,0,0,0,
0,0,0,0,0,0,0,0,0,0,0,0,0,0,0,0,0,0,0,0,0,0,0,0,0,0,0,0,0,0,
0,0,0,0,0,0,0,0,105,118,118,118,118,118,118,118,118,118,118,118,118,107,0,0,0,0,0,0,0,0,
0,0,0,0,0,0,0,0,108,0,0,0,229,230,230,230,230,231,0,0,0,108,0,0,0,0,0,0,0,0,
0,0,0,0,0,0,0,0,108,0,0,0,240,241,241,241,241,242,0,0,0,108,0,0,0,0,0,0,0,0,
0,0,0,0,0,0,0,0,108,0,0,0,240,241,241,241,241,242,0,0,0,108,0,0,0,0,0,0,0,0,
0,0,0,0,0,0,0,0,108,0,0,0,251,252,252,252,252,253,0,0,0,108,0,0,0,0,0,0,0,0,
0,0,0,0,0,0,0,0,108,0,0,0,0,0,0,0,0,0,0,0,0,108,0,0,0,0,0,0,0,0,
0,0,0,0,0,0,0,0,108,0,0,0,0,0,0,0,0,0,0,0,0,108,0,0,0,0,0,0,0,0,
0,0,0,0,0,0,0,0,112,125,0,0,0,0,0,0,0,0,0,0,120,112,0,0,0,0,0,0,0,0,
0,0,0,0,0,0,0,0,0,130,0,0,0,0,0,0,0,0,0,0,0,0,0,0,0,0,0,0,0,0,
0,0,0,0,0,0,0,0,0,130,0,0,0,0,0,0,0,0,0,0,0,0,0,0,0,0,0,0,0,0,
0,0,0,0,0,0,0,0,0,134,0,0,0,0,0,0,0,0,0,0,0,0,0,0,0,0,0,0,0,0,
0,0,0,0,0,0,0,0,0,0,0,0,0,0,0,0,0,0,0,0,0,0,0,0,0,0,0,0,0,0,
0,0,0,0,0,0,0,0,0,0,0,0,0,0,0,0,0,0,0,0,0,0,0,0,0,0,0,0,0,0,
0,0,0,0,0,0,0,0,0,0,0,0,0,0,0,0,0,0,0,0,0,0,0,0,0,0,0,0,0,0,
0,0,0,0,0,0,0,0,0,306,0,0,0,0,0,0,0,0,0,0,0,0,0,0,0,0,0,0,0,0,
0,0,0,0,0,0,0,0,0,310,0,0,0,0,0,0,0,0,0,0,0,0,0,0,0,0,0,0,0,0
</data>
 </layer>
 <layer id="11" name="+2" width="30" height="18">
  <data encoding="csv">
0,0,0,0,0,0,0,0,0,0,0,0,0,0,0,0,0,0,0,0,0,0,0,0,0,0,0,0,0,0,
0,0,0,0,0,0,0,0,0,0,0,0,139,140,141,142,143,144,0,0,0,0,0,0,0,0,0,0,0,0,
0,0,0,0,0,0,0,0,0,0,0,0,157,158,159,160,161,162,0,0,0,0,0,0,0,0,0,0,0,0,
0,0,0,0,0,0,0,0,0,0,0,0,175,176,177,178,179,180,0,0,0,0,0,0,0,0,0,0,0,0,
0,0,0,0,0,0,0,0,0,0,0,0,193,194,195,196,197,198,0,0,0,0,0,0,0,0,0,0,0,0,
0,0,0,0,0,0,0,0,0,0,0,0,211,212,213,214,215,216,0,0,0,0,0,0,0,0,0,0,0,0,
0,0,0,0,0,0,0,0,0,0,0,0,0,0,0,0,0,0,0,0,0,0,0,0,0,0,0,0,0,0,
0,0,0,0,0,0,0,0,0,0,0,0,0,0,0,0,0,0,0,0,0,0,0,0,0,0,0,0,0,0,
0,0,0,0,0,0,0,0,0,0,0,0,0,0,0,0,0,0,0,0,0,0,0,0,0,0,0,0,0,0,
0,0,0,0,0,0,0,0,0,0,0,0,0,0,0,0,0,0,0,0,0,0,0,0,0,0,0,0,0,0,
0,0,0,0,0,0,0,0,0,0,0,0,0,0,0,0,0,0,0,0,0,0,0,0,0,0,0,0,0,0,
0,0,0,0,0,0,0,0,0,0,0,0,0,0,0,0,0,0,0,0,0,0,0,0,0,0,0,0,0,0,
0,0,0,0,0,0,0,0,0,0,0,0,0,0,0,0,0,0,0,0,0,0,0,0,0,0,0,0,0,0,
0,0,0,0,0,0,0,0,0,0,0,0,0,0,0,0,0,0,0,0,0,0,0,0,0,0,0,0,0,0,
0,0,0,0,0,0,0,0,0,0,0,0,0,0,0,0,0,0,0,0,0,0,0,0,0,0,0,0,0,0,
0,0,0,0,0,0,0,0,0,0,0,0,0,0,0,0,0,0,0,0,0,0,0,0,0,0,0,0,0,0,
0,0,0,0,0,0,0,0,0,0,0,0,0,0,0,0,0,0,0,0,0,0,0,0,0,0,0,0,0,0,
0,0,0,0,0,0,0,0,0,0,0,0,0,0,0,0,0,0,0,0,0,0,0,0,0,0,0,0,0,0
</data>
 </layer>
 <objectgroup id="3" name="Spawnpoints">
  <object id="1" name="Player" type="Player" x="232" y="96" width="16" height="16"/>
  <object id="34" name="home-town" x="151" y="280"/>
 </objectgroup>
 <objectgroup id="13" name="Collisions">
  <object id="6" x="127" y="32" width="16" height="128"/>
  <object id="7" x="337" y="32" width="16" height="160"/>
  <object id="8" x="144" y="32" width="192" height="16"/>
  <object id="9" x="161" y="160" width="175" height="32"/>
  <object id="10" x="112" y="192" width="16" height="110"/>
  <object id="11" x="176" y="192" width="176" height="16"/>
  <object id="13" x="352" y="192" width="16" height="96"/>
  <object id="22" x="200" y="48" width="80" height="44"/>
  <object id="24" x="176" y="256" width="176" height="45.625"/>
  <object id="25" type="Warp" x="128.375" y="293.875" width="48" height="8">
   <properties>
    <property name="targetLevel" value="Level-02"/>
    <property name="targetSpawn" value="home-town"/>
   </properties>
  </object>
  <object id="32" x="127" y="160" width="16" height="32"/>
 </objectgroup>
</map>
